symbolic/22x22/apps/Black_Chocobo.svg

<svg xmlns="http://www.w3.org/2000/svg" width="22" height="22" version="1.1">
 <rect style="opacity:0.2" width="20" height="20" x="1" y="1.5" rx="1.5" ry="1.5"/>
 <rect style="fill:#6f6f6f" width="20" height="20" x="1" y="1" rx="1.5" ry="1.5"/>
 <path style="opacity:0.1;fill:#ffffff" d="M 17.333984,2 C 17.295044,2.0057 17.256914,2.032118 17.217773,2.067383 17.065194,2.698218 16.83892,3.316469 16.59082,3.911133 16.126522,4.77984 15.138257,5.1254305 14.441406,5.748047 14.378084,6.347244 15.030539,5.679044 15.511719,5.4833985 15.938259,5.193825 16.340827,4.878873 16.59082,4.411133 16.912938,3.639056 17.200032,2.8285989 17.333984,2 Z m 2.650391,0.5703125 c -0.02398,-0.00647 -0.07697,0.033042 -0.170899,0.1376953 -0.01922,0.032825 -0.04299,0.061257 -0.06348,0.092774 -0.06961,0.1669542 -0.129698,0.3166464 -0.142578,0.3828124 -0.380188,0.7310478 -0.695967,1.5019588 -1.188477,2.1650393 -0.374558,0.7549805 -1.206984,1.30513 -2.048828,1.3515625 -0.450839,0.085739 -1.258559,0.053241 -1.478515,0.383789 0.818584,0.2440485 1.650522,-0.032725 2.449218,-0.223633 0.0586,-0.02132 0.115021,-0.027025 0.171875,-0.03711 0.384389,-0.2401605 0.709438,-0.5779035 0.90625,-0.974609 0.49251,-0.6630805 0.808289,-1.4339915 1.188477,-2.1650393 0.03766,-0.1934581 0.480854,-1.0852638 0.376953,-1.1132812 z M 18.235351,7.564453 c -0.05008,0.09161 -0.117612,0.1846965 -0.228515,0.277344 -0.263954,1.0976295 -1.43558,0.725357 -2.258789,0.8554685 -0.503454,0.062217 -0.424481,0.3272365 -0.157227,0.5312505 0.04447,-0.01293 0.09677,-0.02378 0.157227,-0.03125 0.823209,-0.130112 1.994835,0.242161 2.258789,-0.855469 0.33803,-0.2823865 0.364809,-0.5736435 0.228515,-0.777344 z M 6,9.041992 C 6.00425,9.477577 6.114494,9.939033 6.2441405,10.405274 6.175932,9.967633 6.102393,9.545659 6.0234375,9.173828 6.0111615,9.12969 6.0076265,9.08589 6,9.041992 Z m 10.884765,0.844727 c -0.224679,0.263051 -0.63007,0.497409 -0.952148,0.321289 -0.802842,-0.516264 -0.811177,0.204815 -0.777344,0.859375 0.02966,-0.442582 0.185132,-0.740194 0.777344,-0.359375 0.59458,0.325132 1.493848,-0.737929 0.952148,-0.821289 z m -1.703125,2.884892 c -0.01365,0.233706 -0.0289,0.478538 -0.01074,0.695312 0.01375,-0.254967 0.02991,-0.501028 0.01074,-0.695312 z m 1.403321,1.791015 c -0.496078,0.22673 -0.504814,1.173642 -1.170899,0.634766 -0.525716,-0.107326 -0.242649,0.193018 -0.100586,0.492187 0.03506,0.0033 0.05289,-0.0019 0.100586,0.0078 0.666085,0.538877 0.674821,-0.408035 1.170899,-0.634765 0.546623,-0.261095 0.342398,-0.429693 0.001,-0.5 z m -1.31543,1.541992 c -0.04022,0.02543 -0.08817,0.04805 -0.157227,0.06348 -1.168399,0.553483 -0.749798,1.318466 -1.202148,2.491084 -0.163664,0.804719 -0.706978,1.513045 -0.74414,2.337891 -1.693525,-0.01211 -3.389041,0.02751 -5.081055,-0.03321 -0.0045,0.01209 -0.00916,0.02404 -0.01367,0.03614 H 13.25 c 0.165327,-0.62372 0.530255,-1.20211 0.660156,-1.840821 0.45235,-1.172618 0.03375,-1.937601 1.202148,-2.491085 0.377285,-0.08428 0.281356,-0.33502 0.157227,-0.563477 z m -8.048828,0.05261 c -0.075393,0.03634 -0.153075,0.06957 -0.2265625,0.109375 -0.1641865,0.05749 -0.342824,0.117629 -0.512695,0.178711 0.8770825,0.174696 2.1209795,0.735684 2.1699215,1.3125 0.01734,0.116529 0.02264,0.232021 0.029295,0.347657 0.016925,-0.280052 0.01318,-0.56224 -0.029295,-0.847657 C 8.615362,16.833497 7.9295825,16.418447 7.220703,16.157226 Z"/>
 <path style="opacity:0.1;fill:#ffffff" d="M 2.5,1 C 1.669,1 1,1.669 1,2.5 V 3 C 1,2.169 1.669,1.5 2.5,1.5 h 17 C 20.331,1.5 21,2.169 21,3 V 2.5 C 21,1.669 20.331,1 19.5,1 Z"/>
 <path style="fill:#3f3f3f" d="M 7.9001015,20.958957 C 8.348332,19.780013 8.843047,18.546157 8.6512935,17.25767 8.5898315,16.533298 6.633847,15.822981 5.9017985,15.888083 6.8953505,14.916472 6.4773155,11.312629 6.023236,9.174193 5.7555785,8.211842 6.316733,7.26389 6.7037195,6.376052 6.6744495,5.608148 7.655391,5.2822095 7.810106,5.851921 8.3987325,5.4570385 9.178875,4.4845295 9.845765,5.282895 c 0.711593,0.396887 1.327821,0.6354 2.140976,0.454678 0.814875,-0.379745 1.689722,-0.6464635 2.389324,-1.236676 0.723672,-0.5872946 1.468345,-1.1661219 2.049746,-1.9052328 0.379833,-0.2227617 0.642094,-1.056674 0.908583,-1.0956639 -0.133952,0.8285989 -0.421058,1.638621 -0.743176,2.4106974 -0.464298,0.8687068 -1.452637,1.2152183 -2.149487,1.8378348 -0.07786,0.736742 0.930768,-0.4565385 1.366239,-0.3111975 0.784843,-0.1964705 1.343512,-0.958791 2.071042,-1.34847 0.599881,-0.6801782 1.464216,-1.0775931 1.934242,-1.8805648 0.50093,-0.5581517 -0.159367,0.7368785 -0.205719,0.9749808 -0.380188,0.7310477 -0.696541,1.502154 -1.189051,2.1652345 -0.374558,0.7549805 -1.206231,1.3048395 -2.048076,1.351272 -0.450839,0.085739 -1.258818,0.053565 -1.478775,0.384113 0.818584,0.2440485 1.650735,-0.032435 2.449431,-0.223342 0.732828,-0.26664 1.380307,0.384241 0.665581,0.9813145 -0.263954,1.0976295 -1.435581,0.725021 -2.25879,0.8551325 -0.949774,0.117374 0.154584,0.9659775 0.737306,0.7388845 1.259211,-0.367563 0.142353,1.151659 -0.552268,0.771822 -1.084859,-0.697614 -0.719576,1.365509 -0.758861,1.968536 0.118873,0.620831 -0.379076,2.097755 0.712364,1.883339 0.426995,-0.11962 1.616978,0.06399 0.698152,0.502871 -0.496078,0.22673 -0.504191,1.17349 -1.170275,0.634613 -0.881547,-0.179969 0.516598,0.787808 -0.302382,0.970762 -1.1684,0.553484 -0.749361,1.319163 -1.201711,2.491781 -0.163664,0.804719 -0.706612,1.51271 -0.743774,2.337556 -1.755091,-0.01255 -3.513109,0.03264 -5.2663045,-0.03821 z"/>
 <path style="opacity:0.2" d="M 17.333984,1.5 C 17.067495,1.53899 16.805614,2.3729415 16.425781,2.5957031 15.84438,3.334814 15.099649,3.9136819 14.375977,4.5009765 13.676375,5.091189 12.801204,5.3575595 11.986328,5.7373045 11.173174,5.9180265 10.557297,5.68009 9.845703,5.283203 9.178814,4.4848375 8.3991735,5.45668 7.810547,5.8515625 7.655832,5.281851 6.6748315,5.6080725 6.7041015,6.3759765 6.3556355,7.17544 5.871267,8.0241245 5.972656,8.8876955 6.053387,8.197215 6.423136,7.520577 6.7041015,6.8759765 6.6748315,6.1080725 7.655832,5.781851 7.810547,6.3515625 8.3991735,5.95668 9.178814,4.9848375 9.845703,5.783203 10.557297,6.18009 11.173174,6.4180265 11.986328,6.2373045 12.801204,5.8575595 13.676375,5.591189 14.375977,5.0009765 15.099649,4.4136815 15.84438,3.8348141 16.425781,3.0957031 16.750104,2.9054964 16.989063,2.2734215 17.217773,2.0673828 17.263294,1.879179 17.303204,1.6904006 17.333984,1.5 Z m 2.650391,0.5703125 c -0.02398,-0.00647 -0.07697,0.033042 -0.170899,0.1376953 -0.470025,0.8029717 -1.334689,1.2006812 -1.93457,1.8808592 -0.727529,0.389679 -1.286447,1.1521625 -2.071289,1.348633 -0.0813,-0.027135 -0.185444,0.001 -0.295898,0.0459 -0.36565,0.2482345 -0.74867,0.477269 -1.070313,0.7646485 -0.07786,0.736742 0.930739,-0.455888 1.366211,-0.310547 0.784842,-0.1964705 1.34376,-0.958954 2.071289,-1.348633 0.575358,-0.6523743 1.390418,-1.04864 1.871094,-1.7880872 0.133912,-0.3211912 0.30274,-0.7120338 0.234375,-0.7304688 z m -2.375,4.7314455 c -0.03114,0.00235 -0.06466,0.015805 -0.09668,0.021485 -0.347152,0.2168955 -0.743082,0.354919 -1.142578,0.3769535 -0.450839,0.085739 -1.258559,0.053241 -1.478515,0.383789 0.818584,0.2440485 1.650522,-0.032725 2.449218,-0.223633 0.386236,-0.140532 0.742648,-0.0229 0.894531,0.2041015 C 18.467659,7.1394765 18.107167,6.764013 17.609375,6.801758 Z M 15.59082,9.228516 c -0.654227,0.190213 0.348902,0.919669 0.894531,0.707031 0.181354,-0.05294 0.308272,-0.06285 0.399414,-0.04883 C 17.14465,9.582449 17.160699,9.238411 16.485351,9.435545 16.211517,9.542261 15.827745,9.409375 15.59082,9.228514 Z m -0.435547,1.838867 c -0.02467,0.368173 0.03639,1.334682 0.01855,1.608524 0.0053,0.02766 0.0048,0.06486 0.0078,0.0957 0.01318,-0.225645 0.02229,-0.438488 -0.0078,-0.595704 0.01021,-0.156761 -0.0067,-0.878595 -0.01855,-1.108524 z m 0.01563,2.39954 c -0.03304,0.612794 -0.02059,1.237441 0.715821,1.092774 0.172728,-0.04839 0.465905,-0.04475 0.698242,0.003 3.24e-4,6.6e-5 6.5e-4,-6.7e-5 10e-4,0 0.917001,-0.43854 -0.272376,-0.622508 -0.699219,-0.50293 -0.528787,0.103881 -0.682282,-0.192349 -0.71582,-0.592774 z m -8.6699215,-0.07239 c -0.00577,1.106914 -0.1595935,2.062865 -0.5996095,2.493164 0.087949,-0.0078 0.1956045,-0.0025 0.313477,0.01074 0.2513905,-0.601951 0.319654,-1.51333 0.2861325,-2.503906 z m 8.6806635,2.285282 c -0.158224,0.03181 -0.02375,0.219333 0.08789,0.424805 0.152325,-0.0963 0.120013,-0.254851 0.04395,-0.415039 -0.04594,-0.0043 -0.104762,-0.01521 -0.131836,-0.0098 z m -6.500976,2.425656 c -0.05948,0.984218 -0.4313315,1.935722 -0.7802735,2.853515 0.0615,0.0025 0.1230595,0.0027 0.1845705,0.0049 0.3447555,-0.920877 0.6524465,-1.872384 0.595703,-2.858398 z"/>
 <path style="opacity:0.2" d="M 6.0934215,8.5 C 2.9992401,10.060764 1.2648759,14.528466 2.3001802,17.868271 2.3927778,18.102919 2.5096007,18.324315 2.7223263,18.5 3.2672989,18.163542 3.4844857,17.570648 3.9408634,17.170817 4.1635035,16.97797 4.4236335,16.837428 4.7398675,16.854107 5.65076,16.797245 6.3325955,16.497953 6.994193,16.266291 7.3733755,16.060903 7.783695,15.915411 8.16564,15.68814 8.871359,15.35457 9.357469,14.280696 8.6640155,14.058396 8.5041935,14.014036 8.3015555,14.044411 8.137865,13.977871 7.326778,13.459592 6.725742,12.295907 6.5168455,11.415292 6.2910375,10.467115 5.858432,9.438867 6.036678,8.5806745 Z"/>
 <path style="fill:#eba420" d="M 6.0934215,8 C 2.9992401,9.560764 1.2648759,14.028466 2.3001802,17.368271 2.3927778,17.602919 2.5096007,17.824315 2.7223263,18 3.2672989,17.663542 3.4844857,17.070648 3.9408634,16.670817 4.1635035,16.47797 4.4236335,16.337428 4.7398675,16.354107 5.65076,16.297245 6.3325955,15.997953 6.994193,15.766291 7.3733755,15.560903 7.783695,15.415411 8.16564,15.18814 8.871359,14.85457 9.357469,13.780696 8.6640155,13.558396 8.5041935,13.514036 8.3015555,13.544411 8.137865,13.477871 7.326778,12.959592 6.725742,11.795907 6.5168455,10.915292 6.2910375,9.967115 5.858432,8.938867 6.036678,8.0806745 Z"/>
 <ellipse id="ellipse1060" style="opacity:0.2" cx="8.5" cy="10" rx="1" ry="1.5"/>
 <ellipse style="fill:#456ef0" cx="8.5" cy="9.5" rx="1" ry="1.5"/>
 <path style="opacity:0.5979996;fill:#113ecd" d="M 7.708008,8.5878916 A 1,1.5 0 0 0 7.5,9.500001 1,1.5 0 0 0 7.9697265,10.770509 1.25,1.25 0 0 0 8.5,9.750001 1.25,1.25 0 0 0 7.708008,8.5878916 Z"/>
 <path id="ellipse1023" style="fill:#ffffff" d="M 8.5,8.0000006 A 1,1.5 0 0 0 7.946289,8.2529301 1,1.5 0 0 1 8,8.2500006 1,1.5 0 0 1 9,9.750001 1,1.5 0 0 1 8.553711,10.997072 1,1.5 0 0 0 9.5,9.500001 1,1.5 0 0 0 8.5,8.0000006 Z"/>
 <path style="fill:#2e2e2e" d="m 7.4956975,9.238773 c -0.037705,0.159313 0.00475,0.296081 0.0043,0.465134 4.315e-4,0.169054 0.01991,0.336781 0.057617,0.496094 C 7.80956,10.170774 7.999708,9.95754 8,9.703907 7.999708,9.450275 7.7476405,9.267999 7.4956975,9.238773 Z"/>
 <path style="opacity:0.3" d="m 5.829469,10.493929 c -0.2273755,0.227375 -1.038978,0.670331 -1.2663535,0.442956 -0.227375,-0.227376 0.21558,-1.038979 0.442955,-1.266354 0.2273755,-0.227375 0.596023,-0.227375 0.8233985,0 0.2273745,0.227375 0.2273745,0.596023 0,0.823398 z"/>
 <path style="opacity:0.2" d="m 5.417969,9.5 c -0.149006,0 -0.298422,0.05721 -0.4121095,0.170899 -0.227375,0.227375 -0.669758,1.038249 -0.442383,1.265625 3.015e-4,3.01e-4 6.5e-4,7e-4 10e-4,9.99e-4 0.102852,-0.299739 0.3079425,-0.633137 0.4414065,-0.766601 0.2273755,-0.227375 0.5958665,-0.227375 0.823242,0 0.04765,0.04765 0.079744,0.103678 0.107422,0.161133 C 6.040517,10.11546 6.008652,9.85045 5.829125,9.670922 5.715414,9.557211 5.5669745,9.5 5.417969,9.5 Z"/>
 <path style="opacity:0.2;fill:#ffffff" d="M 6.09375,8 C 3.5315167,9.292439 1.9075157,12.57741 2.0107422,15.565429 2.0916076,12.756474 3.6339529,9.804357 6,8.553711 5.9977,8.392068 6.00547,8.2333815 6.03711,8.0810545 Z M 6.010742,8.796875 c -0.076735,0.811892 0.298563,1.747716 0.5058595,2.618164 0.2088965,0.880615 0.810007,2.044221 1.621094,2.5625 0.1636905,0.06654 0.366545,0.03669 0.526367,0.08105 0.1434065,0.04597 0.2331745,0.129644 0.2841795,0.234375 C 9.053438,13.969342 8.997437,13.665458 8.6640625,13.558589 8.5042405,13.514229 8.301386,13.544079 8.1376955,13.477539 7.3266085,12.95926 6.725498,11.795654 6.5166015,10.915039 6.3508425,10.219009 6.0759405,9.480258 6.010742,8.796875 Z"/>
</svg>

<svg xmlns="http://www.w3.org/2000/svg" width="22" height="22"><rect style="opacity:.2" width="20" height="20" x="1" y="1.5" rx="1.5" ry="1.5"/><rect style="fill:#6f6f6f" width="20" height="20" x="1" y="1" rx="1.5" ry="1.5"/><path style="opacity:.1;fill:#fff" d="M17.334 2a.24.24 0 0 0-.116.067c-.153.631-.38 1.25-.627 1.844-.464.869-1.453 1.214-2.15 1.837-.063.6.59-.069 1.07-.265.427-.29.83-.604 1.08-1.072.322-.772.609-1.582.743-2.411zm2.65.57c-.024-.006-.077.033-.17.138-.02.033-.044.061-.064.093a2.96 2.96 0 0 0-.143.383c-.38.73-.696 1.502-1.188 2.165-.375.755-1.207 1.305-2.049 1.351-.45.086-1.258.053-1.478.384.818.244 1.65-.033 2.449-.224.058-.021.115-.027.172-.037.384-.24.71-.578.906-.974.492-.663.808-1.434 1.188-2.165.038-.194.481-1.086.377-1.114zm-1.749 4.994a.933.933 0 0 1-.228.278c-.264 1.097-1.436.725-2.259.855-.503.062-.424.328-.157.532.044-.013.097-.024.157-.032.823-.13 1.995.242 2.259-.855.338-.283.365-.574.228-.778zM6 9.042c.004.436.114.897.244 1.363-.068-.437-.142-.86-.22-1.231-.013-.044-.016-.088-.024-.132zm10.885.845c-.225.263-.63.497-.952.321-.803-.516-.812.205-.778.86.03-.443.185-.74.778-.36.594.325 1.493-.738.952-.821zm-1.703 2.885c-.014.233-.03.478-.011.695.014-.255.03-.501.01-.695zm1.403 1.79c-.496.227-.505 1.174-1.17.635-.527-.107-.244.193-.102.493.036.003.053-.002.101.007.666.54.675-.408 1.171-.634.547-.261.342-.43.001-.5zm-1.315 1.543a.476.476 0 0 1-.158.063c-1.168.554-.75 1.319-1.202 2.491-.164.805-.707 1.513-.744 2.338-1.694-.012-3.389.028-5.081-.033L8.071 21h5.179c.165-.624.53-1.202.66-1.84.453-1.173.034-1.938 1.202-2.492.378-.084.282-.335.158-.563zm-8.05.052c-.075.037-.152.07-.226.11-.164.057-.343.117-.513.178.878.175 2.121.736 2.17 1.313.018.116.023.232.03.347.017-.28.013-.562-.03-.847-.036-.425-.721-.84-1.43-1.1z"/><path style="opacity:.1;fill:#fff" d="M2.5 1C1.669 1 1 1.669 1 2.5V3c0-.831.669-1.5 1.5-1.5h17c.831 0 1.5.669 1.5 1.5v-.5c0-.831-.669-1.5-1.5-1.5z"/><path style="fill:#3f3f3f" d="M7.9 20.959c.448-1.179.943-2.413.751-3.701-.061-.725-2.017-1.435-2.75-1.37.994-.972.576-4.575.122-6.714-.267-.962.294-1.91.68-2.798-.029-.768.952-1.094 1.107-.524.589-.395 1.369-1.367 2.036-.57.711.398 1.328.636 2.14.456.816-.38 1.69-.647 2.39-1.237.724-.587 1.468-1.166 2.05-1.905.38-.223.642-1.057.908-1.096-.134.829-.42 1.639-.743 2.41-.464.87-1.452 1.216-2.15 1.839-.077.736.931-.457 1.367-.312.785-.196 1.343-.958 2.071-1.348.6-.68 1.464-1.078 1.934-1.88.501-.559-.16.736-.205.974-.38.731-.697 1.502-1.19 2.166-.374.754-1.206 1.304-2.048 1.35-.45.087-1.258.054-1.478.385.818.244 1.65-.033 2.45-.223.732-.267 1.38.384.665.98-.264 1.099-1.436.726-2.26.856-.949.117.155.966.738.739 1.26-.368.143 1.152-.552.772-1.085-.698-.72 1.365-.759 1.968.119.621-.379 2.098.712 1.884.427-.12 1.617.064.699.502-.497.227-.505 1.174-1.17.635-.882-.18.516.788-.303.97-1.169.554-.75 1.32-1.202 2.493-.163.804-.706 1.512-.744 2.337-1.755-.012-3.513.033-5.266-.038z"/><path style="opacity:.2" d="M17.334 1.5c-.267.039-.528.873-.908 1.096-.582.739-1.326 1.318-2.05 1.905-.7.59-1.575.857-2.39 1.236-.813.181-1.429-.057-2.14-.454-.667-.798-1.447.174-2.035.569-.155-.57-1.136-.244-1.107.524-.348.8-.833 1.648-.731 2.512.08-.69.45-1.367.731-2.012-.03-.768.952-1.094 1.107-.524.588-.395 1.368-1.367 2.035-.569.711.397 1.327.635 2.14.454.815-.38 1.69-.646 2.39-1.236.724-.587 1.468-1.166 2.05-1.905.324-.19.563-.823.792-1.029.045-.188.085-.377.116-.567zm2.65.57c-.024-.006-.077.033-.17.138-.47.803-1.335 1.2-1.935 1.88-.728.39-1.287 1.153-2.071 1.35-.082-.028-.186 0-.296.045-.366.249-.749.478-1.07.765-.078.737.93-.456 1.366-.31.784-.197 1.343-.96 2.07-1.35.576-.652 1.391-1.048 1.872-1.787.134-.321.303-.712.234-.73zM17.61 6.802c-.03.002-.064.016-.096.021a2.433 2.433 0 0 1-1.143.377c-.45.086-1.258.053-1.478.384.818.244 1.65-.033 2.449-.224.386-.14.742-.023.894.204.233-.425-.128-.8-.626-.762zm-2.018 2.427c-.654.19.349.92.894.707a.951.951 0 0 1 .4-.05c.26-.304.276-.648-.4-.45-.273.106-.657-.027-.894-.207zm-.436 1.838c-.024.369.037 1.335.019 1.609.005.028.005.065.008.096.013-.226.022-.439-.008-.596.01-.157-.007-.879-.019-1.109zm.016 2.4c-.033.613-.02 1.237.716 1.093.172-.049.466-.045.698.003h.001c.917-.439-.272-.623-.7-.503-.528.104-.682-.193-.715-.593zm-8.67-.072c-.006 1.106-.16 2.062-.6 2.493.088-.008.196-.003.314.01.251-.602.32-1.513.286-2.503zm8.68 2.285c-.158.032-.023.22.089.425.152-.097.12-.255.043-.415-.045-.005-.104-.016-.131-.01zm-6.5 2.425c-.06.985-.432 1.936-.78 2.854l.184.005c.345-.921.652-1.872.596-2.859z"/><path style="opacity:.2" d="M6.093 8.5C3 10.06 1.265 14.528 2.3 17.868c.093.235.21.456.422.632.545-.336.762-.93 1.219-1.33.223-.192.483-.333.799-.316.91-.057 1.593-.356 2.254-.588.38-.205.79-.35 1.172-.578.705-.333 1.191-1.407.498-1.63-.16-.044-.362-.014-.526-.08-.811-.518-1.412-1.682-1.621-2.563-.226-.948-.659-1.976-.48-2.834z"/><path style="fill:#eba420" d="M6.093 8C3 9.56 1.265 14.028 2.3 17.368c.093.235.21.456.422.632.545-.336.762-.93 1.219-1.33.223-.192.483-.333.799-.316.91-.057 1.593-.356 2.254-.588.38-.205.79-.35 1.172-.578.705-.333 1.191-1.407.498-1.63-.16-.044-.362-.014-.526-.08-.811-.518-1.412-1.682-1.621-2.563-.226-.948-.659-1.976-.48-2.834z"/><ellipse style="opacity:.2" cx="8.5" cy="10" rx="1" ry="1.5"/><ellipse style="fill:#456ef0" cx="8.5" cy="9.5" rx="1" ry="1.5"/><path style="opacity:.5979996;fill:#113ecd" d="M7.708 8.588A1 1.5 0 0 0 7.5 9.5a1 1.5 0 0 0 .47 1.27 1.25 1.25 0 0 0 .53-1.02 1.25 1.25 0 0 0-.792-1.162z"/><path style="fill:#fff" d="M8.5 8a1 1.5 0 0 0-.554.253A1 1.5 0 0 1 8 8.25a1 1.5 0 0 1 1 1.5 1 1.5 0 0 1-.446 1.247A1 1.5 0 0 0 9.5 9.5a1 1.5 0 0 0-1-1.5z"/><path style="fill:#2e2e2e" d="M7.496 9.239c-.038.16.004.296.004.465 0 .169.02.337.058.496A.5.5 0 0 0 8 9.704c0-.254-.252-.436-.504-.465z"/><path style="opacity:.3" d="M5.83 10.494c-.228.227-1.04.67-1.267.443-.227-.227.216-1.04.443-1.266a.582.582 0 0 1 .823.823z"/><path style="opacity:.2" d="M5.418 9.5a.582.582 0 0 0-.412.17c-.228.228-.67 1.04-.443 1.267h.001c.103-.3.308-.633.442-.766a.582.582 0 0 1 .823 0 .57.57 0 0 1 .108.161.577.577 0 0 0-.519-.832z"/><path style="opacity:.2;fill:#fff" d="M6.094 8c-2.562 1.292-4.186 4.577-4.083 7.565.08-2.809 1.623-5.76 3.989-7.011-.002-.162.005-.32.037-.473zm-.083.797c-.077.812.298 1.748.506 2.618.208.88.81 2.044 1.62 2.563.164.066.367.036.527.08.143.047.233.13.284.235.105-.324.05-.628-.284-.734-.16-.045-.363-.015-.526-.081-.811-.519-1.413-1.682-1.621-2.563-.166-.696-.441-1.435-.506-2.118z"/></svg>
